hoop-house.svg

<svg fill="currentColor" viewBox="0 0 24 24"><path d="M12 5C6.5 5 2 9.5 2 15v6h20v-6c0-5.5-4.5-10-10-10m0 2c2.53 0 4.78 1.17 6.25 3H5.76C7.22 8.17 9.47 7 12 7M8 19H4v-4c0-1.06.21-2.07.58-3H8zm6 0h-4v-7h4zm6 0h-4v-7h3.42c.37.93.58 1.94.58 3z"/></svg>

<svg  viewBox="0 0 24 24" fill="currentColor"><path  d="M12 5C6.5 5 2 9.5 2 15V21H22V15C22 9.5 17.5 5 12 5M12 7C14.53 7 16.78 8.17 18.25 10H5.76C7.22 8.17 9.47 7 12 7M8 19H4V15C4 13.94 4.21 12.93 4.58 12H8V19M14 19H10V12H14V19M20 19H16V12H19.42C19.79 12.93 20 13.94 20 15V19Z"/></svg>
